packages/bezier-icons/icons/cloud-upload.svg

<svg width="24" height="24" viewBox="0 0 24 24" fill="none" xmlns="http://www.w3.org/2000/svg">
<path fill-rule="evenodd" clip-rule="evenodd" d="M12 6C9.92646 6 8.22038 7.57854 8.01979 9.5988L7.93032 10.5H6.25C4.45507 10.5 3 11.9551 3 13.75C3 15.5449 4.45508 17 6.25 17H8C8.55228 17 9 17.4477 9 18C9 18.5523 8.55228 19 8 19H6.25C3.35051 19 1 16.6495 1 13.75C1 10.8708 3.31768 8.53296 6.18914 8.50035C6.85537 5.91199 9.2039 4 12 4C14.2235 4 16.1628 5.20939 17.1989 7.00324C20.4206 7.10818 23 9.75286 23 13C23 16.3137 20.3137 19 17 19H16C15.4477 19 15 18.5523 15 18C15 17.4477 15.4477 17 16 17H17C19.2091 17 21 15.2091 21 13C21 10.7909 19.2091 9 17 9H15.9296L15.6676 8.40037C15.0494 6.98556 13.6387 6 12 6ZM11.2929 10.2929C11.6834 9.90237 12.3166 9.90237 12.7071 10.2929L15.6343 13.2201C16.1383 13.7241 15.7813 14.5858 15.0686 14.5858H13V18C13 18.5523 12.5523 19 12 19C11.4477 19 11 18.5523 11 18V14.5858H8.93136C8.21864 14.5858 7.86171 13.7241 8.36568 13.2201L11.2929 10.2929Z" fill="#313234"/>
</svg>

<svg xmlns="http://www.w3.org/2000/svg" width="24" height="24" fill="none" viewBox="0 0 24 24"><path fill="#313234" fill-rule="evenodd" d="M12 6a4 4 0 0 0-3.98 3.599l-.09.901H6.25a3.25 3.25 0 0 0 0 6.5H8a1 1 0 1 1 0 2H6.25a5.25 5.25 0 0 1-.06-10.5 6.002 6.002 0 0 1 11.009-1.497A6 6 0 0 1 17 19h-1a1 1 0 1 1 0-2h1a4 4 0 0 0 0-8h-1.07l-.262-.6A4 4 0 0 0 12 6m-.707 4.293a1 1 0 0 1 1.414 0l2.927 2.927a.8.8 0 0 1-.565 1.366H13V18a1 1 0 1 1-2 0v-3.414H8.931a.8.8 0 0 1-.565-1.366z" clip-rule="evenodd"/></svg>
